X:19
T:Liti Kjersti (2)
R:
C:Trad
H:
N:chant par Kirsten Brten Berg
D:Chants de danses de Norvge
O:Norge - Norway - Norvge
A:
Z:<anamnese@laposte.net> -- http://anamnese.fr.st
M:C
L:1/4
Q:1/4=120
K:G
"B" F F/F/ F A | "z" G G/E/ F2 | F/E/ E/E/ ^D B,/ ^D/ | E F E2 
|: E E/E/ ^D ^D/^D/ | EE/F/ G2 | F3/2 F/4F/4 E3/2 E/4E/4 | DDB,2 |
F F/F/ F A | G G/E/ F2 | F/E/ E/E/ ^D B,/ ^D/ | E F E2 :|
